findly-builder/apps/searchassist/src/assets/icons/search_gray_bg.svg

<svg width="30" height="30" viewBox="0 0 30 30" fill="none" xmlns="http://www.w3.org/2000/svg">
<rect width="30" height="30" rx="4" fill="#EFF0F1"/>
<path fill-rule="evenodd" clip-rule="evenodd" d="M14.2974 8.80078C11.2612 8.80078 8.7998 11.2687 8.7998 14.3131C8.7998 17.3574 11.2612 19.8253 14.2974 19.8253C15.6252 19.8253 16.843 19.3534 17.7931 18.5676L20.342 21.0919L20.38 21.1262C20.5892 21.2972 20.8978 21.2838 21.0914 21.0873C21.297 20.8785 21.2949 20.5421 21.0867 20.3359L18.5423 17.8161C19.325 16.8637 19.795 15.6434 19.795 14.3131C19.795 11.2687 17.3336 8.80078 14.2974 8.80078ZM14.2974 9.86339C16.7483 9.86339 18.7352 11.8556 18.7352 14.3131C18.7352 16.7706 16.7483 18.7627 14.2974 18.7627C11.8465 18.7627 9.85958 16.7706 9.85958 14.3131C9.85958 11.8556 11.8465 9.86339 14.2974 9.86339Z" fill="#202124"/>
</svg>

<svg width="30" height="30" fill="none" xmlns="http://www.w3.org/2000/svg"><rect width="30" height="30" rx="4" fill="#EFF0F1"/><path fill-rule="evenodd" clip-rule="evenodd" d="M14.297 8.8c-3.036 0-5.497 2.47-5.497 5.514s2.461 5.512 5.497 5.512a5.466 5.466 0 0 0 3.496-1.257l2.549 2.524.038.034c.21.171.518.158.711-.039a.532.532 0 0 0-.004-.751l-2.545-2.52a5.498 5.498 0 0 0 1.253-3.503c0-3.044-2.461-5.512-5.498-5.512Zm0 1.063a4.444 4.444 0 0 1 4.438 4.45 4.444 4.444 0 0 1-4.438 4.45 4.444 4.444 0 0 1-4.437-4.45 4.444 4.444 0 0 1 4.437-4.45Z" fill="#202124"/></svg>
